!!!COM: Schubert, Franz
!!!CNT: Deutscher
!!!TXO: Deutsch
!!!OTL: "Der Wanderer an den Mond"
!!!LYR: Johann Gabriel Seidl
!!!OPS: Op. 80
!!!ONM: No. 1
!!!ODT: 1826/
!!NB: Vocal melody only encoded.
!!NB: Original key: g minor
**kern	**silbe
*staff1	*
*clefG2	*
*k[b-e-a-d-]	*
*M2/4	*
*MM[Etwas bewegt]	*
=4	=4
4r	.
8r	.
{8c	{Ich
=5	=5
8f	auf
8f	der
8c	Erd',
8c	am
=6	=6
8cc	Him-
8cc	-mel
8.g	du,
16g	wir
=7	=7
8b-	wan-
8b-	-dern
8a-	bei-
8g	-de
=8	=8
16a-	ru2-
16b-	|
16a-	-stig
16g	|
4f}	zu:}
=9	=9
2r	.
=10	=10
4r	.
8r	.
{8c	{Ich
=11	=11
8f	ernst
8f	und
8.c	tru2b,
16c	du
=12	=12
8cc	mild
8cc	und
4g	rein,
=13	=13
8r	.
8cc	was
8cc	mag
8cc	der
=14	=14
8ddn	Un-
8dd	-ter-
8dd	-scheid
16cc	wohl
16dd	|
=15	=15
4ee-}	sein?}
4r	.
=16	=16
2r	.
=17	=17
4r	.
8r	.
{8c	{Ich
=18	=18
8f	wan-
8f	-dre
8c	fremd
8c	von
=19	=19
8cc	Land
8cc	zu
8.g	Land,
16g	so
=20	=20
8b-	hei-
8b-	-mat-
8a-	-los,
8g	so
=21	=21
16a-	un-
16b-	|
16a-	-be-
16g	|
4f}	-kannt;}
=22	=22
2r	.
=23	=23
4r	.
8r	.
{8c	{Berg
=24	=24
8f	auf,
8f	Berg
8c	ab,
8c	Wald
=25	=25
8cc	ein,
8cc	Wald
4g	aus,
=26	=26
8r	.
8cc	doch
8cc	bin
8cc	ich
=27	=27
8ddn	nir-
8dd	-gend,
8dd	ach!
16ee-	zu
16dd	|
=28	=28
4cc}	Haus.}
4r	.
=29	=29
2r	.
=30	=30
4r	.
8r	.
{8c	{Du
=31	=31
*k[b-]	*
8f	a-
8f	-ber
8c	wan-
8c	-derst
=32	=32
8cc	auf
8cc	und
8.g	ab
16g	aus
=33	=33
8a	We-
8a	-stens
16dd	Wieg'
16cc	|
16b-	in
16a	|
=34	=34
8a	O-
8g	-stens
4g}	Grab,}
=35	=35
2r	.
=36	=36
4r	.
8r	.
{8c	{wallst
=37	=37
8f	La2n-
8f	-der
8c	ein
8c	und
=38	=38
8cc	La2n-
8cc	-der
8g	aus,
8g	und
=39	=39
8a	bist
8cc	doch,
8.dd	wo
16cc	du
=40	=40
8cc	bist,
8e	zu
4f}	Haus.}
=41	=41
2r	.
=42	=42
2r	.
=43	=43
2r	.
=44	=44
4r	.
8r	.
{8cc	{Der
=45	=45
8cc	Him-
8g	-mel,
8a	end-
8f	-los
=46	=46
8.e	aus-
16g	-ges-
8c	-pannt,
8g	ist
=47	=47
8.a	dein
16a	ge-
16dd	-lieb-
16cc	|
16b-	-tes
16a	|
=48	=48
8a	Hei-
8g	-mat-
4g}	-land:}
=49	=49
2r	.
=50	=50
4r	.
8r	.
{8c	{O
=51	=51
8f	glu2ck-
8f	-lich,
8c	wer,
8c	wo-
=52	=52
8cc	-hin
8cc	er
8.g	geht,
16g	doch
=53	=53
8a	auf
8cc	der
8dd	Hei-
8cc	-mat
=54	=54
8cc	Bo-
8e	-den
4f}	steht,}
=55	=55
{8cc	{glu2ck-
8cc	-lich,
8c	wer,
8c	wo-
=56	=56
8a	-hin
16a	er
16g	|
8.f}	geht,}
{16a	{doch
=57	=57
8cc	auf
8cc	der
8c	Hei-
8c	-mat
=58	=58
8a	Bo-
16a	-den
16g	|
4f}	steht,}
=59	=59
{8cc	{auf
8cc	der
8.dd	Hei-
16cc	-mat
=60	=60
8cc	Bo-
8e	-den
4f}	steht!}
==	==
*-	*-
